svg/icon/nxt.svg

<svg xmlns="http://www.w3.org/2000/svg" xmlns:xlink="http://www.w3.org/1999/xlink" width="32" height="32" viewBox="0 0 32 32"><defs><linearGradient id="nxt-c" x1="50%" x2="50%" y1="0%" y2="100%"><stop offset="0%" stop-color="#FFF" stop-opacity=".5"/><stop offset="100%" stop-opacity=".5"/></linearGradient><circle id="nxt-b" cx="16" cy="15" r="15"/><filter id="nxt-a" width="111.7%" height="111.7%" x="-5.8%" y="-4.2%" filterUnits="objectBoundingBox"><feOffset dy=".5" in="SourceAlpha" result="shadowOffsetOuter1"/><feGaussianBlur in="shadowOffsetOuter1" result="shadowBlurOuter1" stdDeviation=".5"/><feComposite in="shadowBlurOuter1" in2="SourceAlpha" operator="out" result="shadowBlurOuter1"/><feColorMatrix in="shadowBlurOuter1" values="0 0 0 0 0 0 0 0 0 0 0 0 0 0 0 0 0 0 0.199473505 0"/></filter><path id="nxt-e" d="M26.082202,15.8333455 C25.5754107,15.8333455 25.1642166,15.4603103 25.1642166,14.9998206 C25.1642166,14.9998206 25.1642166,14.1664477 25.1642166,14.1664477 C25.1642166,14.1664477 20.5518407,14.1664477 20.5518407,14.1664477 C20.0450494,14.1664477 19.6342567,13.7934064 19.6342567,13.3333668 C19.6342567,12.8730656 20.0450494,12.5 20.5518407,12.5 C20.5518407,12.5 26.082202,12.5 26.082202,12.5 C26.5891806,12.5 27,12.8730656 27,13.3333668 C27,13.3333668 27,14.9998206 27,14.9998206 C27,15.4603103 26.5891806,15.8333455 26.082202,15.8333455 Z M21.5330645,15.8333455 C21.5330645,15.8333455 22.3870754,15.8333455 22.3870754,15.8333455 C22.3870754,15.8333455 23.36848,15.8333455 23.36848,15.8333455 C23.8750504,15.8333455 24.2858832,16.2064172 24.2858832,16.6664568 C24.2858832,17.1269161 23.8750504,17.5 23.36848,17.5 C23.36848,17.5 22.3870754,17.5 22.3870754,17.5 C22.3870754,17.5 21.5330645,17.5 21.5330645,17.5 C21.5330645,17.5 20.5518407,17.5 20.5518407,17.5 C20.3991609,17.5 20.2555344,17.4661447 20.1290373,17.4063169 C20.1290373,17.4063169 14.7771971,14.1664477 14.7771971,14.1664477 C14.7771971,14.1664477 13.2346889,14.1664477 13.2346889,14.1664477 C12.7278575,14.1664477 12.317038,13.7934064 12.317038,13.3333668 C12.317038,12.8730656 12.7278575,12.5 13.2346889,12.5 C13.2346889,12.5 15.0700374,12.5 15.0700374,12.5 C15.2677154,12.5 15.4511947,12.5568047 15.6010708,12.6535169 C15.6010708,12.6535169 20.833065,15.8333455 20.833065,15.8333455 C20.833065,15.8333455 21.5330645,15.8333455 21.5330645,15.8333455 Z M15.0701177,15.8333455 C15.5767149,15.8333455 15.987628,16.2064172 15.987628,16.6664568 C15.987628,17.1269161 15.5767149,17.5 15.0701177,17.5 C15.0701177,17.5 13.2345484,17.5 13.2345484,17.5 C13.0822969,17.5 12.9382421,17.4661447 12.8118587,17.4063169 C12.8118587,17.4063169 7.45994497,14.1664477 7.45994497,14.1664477 C7.45994497,14.1664477 5.91772443,14.1664477 5.91772443,14.1664477 C5.41082611,14.1664477 5,13.7934064 5,13.3333668 C5,12.8730656 5.41082611,12.5 5.91772443,12.5 C5.91772443,12.5 7.75300602,12.5 7.75300602,12.5 C7.95068405,12.5 8.13419013,12.5568047 8.2842603,12.6535169 C8.2842603,12.6535169 13.5160202,15.8333455 13.5160202,15.8333455 C13.5160202,15.8333455 15.0701177,15.8333455 15.0701177,15.8333455 Z M5.91772443,15.8332664 C5.91772443,15.8332664 7.75300602,15.8332664 7.75300602,15.8332664 C8.25990434,15.8332664 8.670697,16.206332 8.670697,16.6666332 C8.670697,17.1268432 8.25990434,17.4999209 7.75300602,17.4999209 C7.75300602,17.4999209 5.91772443,17.4999209 5.91772443,17.4999209 C5.41082611,17.4999209 5,17.1268432 5,16.6666332 C5,16.206332 5.41082611,15.8332664 5.91772443,15.8332664 Z"/><filter id="nxt-d" width="115.9%" height="170%" x="-8%" y="-25%" filterUnits="objectBoundingBox"><feOffset dy=".5" in="SourceAlpha" result="shadowOffsetOuter1"/><feGaussianBlur in="shadowOffsetOuter1" result="shadowBlurOuter1" stdDeviation=".5"/><feColorMatrix in="shadowBlurOuter1" values="0 0 0 0 0 0 0 0 0 0 0 0 0 0 0 0 0 0 0.204257246 0"/></filter></defs><g fill="none" fill-rule="evenodd"><use fill="#000" filter="url(#nxt-a)" xlink:href="#nxt-b"/><use fill="#008FBB" xlink:href="#nxt-b"/><use fill="url(#nxt-c)" style="mix-blend-mode:soft-light" xlink:href="#nxt-b"/><circle cx="16" cy="15" r="14.5" stroke="#000" stroke-opacity=".097"/><g><use fill="#000" filter="url(#nxt-d)" xlink:href="#nxt-e"/><use fill="#FFF" xlink:href="#nxt-e"/></g></g></svg>

<svg xmlns="http://www.w3.org/2000/svg" xmlns:xlink="http://www.w3.org/1999/xlink" width="32" height="32" viewBox="0 0 32 32"><defs><linearGradient id="c" x1="50%" x2="50%" y1="0%" y2="100%"><stop offset="0%" stop-color="#FFF" stop-opacity=".5"/><stop offset="100%" stop-opacity=".5"/></linearGradient><circle id="b" cx="16" cy="15" r="15"/><filter id="a" width="111.7%" height="111.7%" x="-5.8%" y="-4.2%" filterUnits="objectBoundingBox"><feOffset dy=".5" in="SourceAlpha" result="shadowOffsetOuter1"/><feGaussianBlur in="shadowOffsetOuter1" result="shadowBlurOuter1" stdDeviation=".5"/><feComposite in="shadowBlurOuter1" in2="SourceAlpha" operator="out" result="shadowBlurOuter1"/><feColorMatrix in="shadowBlurOuter1" values="0 0 0 0 0 0 0 0 0 0 0 0 0 0 0 0 0 0 0.199473505 0"/></filter><path id="e" d="M26.082 15.833c-.507 0-.918-.373-.918-.833v-.834h-4.612c-.507 0-.918-.373-.918-.833 0-.46.411-.833.918-.833h5.53c.507 0 .918.373.918.833V15c0 .46-.41.833-.918.833zm-4.549 0h1.835c.507 0 .918.373.918.833 0 .46-.41.834-.918.834h-2.816a.987.987 0 0 1-.423-.094l-5.352-3.24h-1.542c-.507 0-.918-.373-.918-.833 0-.46.41-.833.918-.833h1.835c.198 0 .381.057.531.154l5.232 3.18h.7zm-6.463 0c.507 0 .918.373.918.833 0 .46-.411.834-.918.834h-1.835a.988.988 0 0 1-.423-.094l-5.352-3.24H5.918c-.507 0-.918-.373-.918-.833 0-.46.41-.833.918-.833h1.835a.98.98 0 0 1 .531.154l5.232 3.18h1.554zm-9.152 0h1.835c.507 0 .918.373.918.834 0 .46-.411.833-.918.833H5.918c-.507 0-.918-.373-.918-.833 0-.46.41-.834.918-.834z"/><filter id="d" width="115.9%" height="170%" x="-8%" y="-25%" filterUnits="objectBoundingBox"><feOffset dy=".5" in="SourceAlpha" result="shadowOffsetOuter1"/><feGaussianBlur in="shadowOffsetOuter1" result="shadowBlurOuter1" stdDeviation=".5"/><feColorMatrix in="shadowBlurOuter1" values="0 0 0 0 0 0 0 0 0 0 0 0 0 0 0 0 0 0 0.204257246 0"/></filter></defs><g fill="none" fill-rule="evenodd"><use fill="#000" filter="url(#a)" xlink:href="#b"/><use fill="#008FBB" xlink:href="#b"/><use fill="url(#c)" style="mix-blend-mode:soft-light" xlink:href="#b"/><circle cx="16" cy="15" r="14.5" stroke="#000" stroke-opacity=".097"/><use fill="#000" filter="url(#d)" xlink:href="#e"/><use fill="#FFF" xlink:href="#e"/></g></svg>
